assets/images/cs3.svg

<svg width="17" height="32" fill="none" xmlns="http://www.w3.org/2000/svg"><g clip-path="url(#clip0_38_70)"><path d="M4.62 31.11V16.82H0v-6.31h4.62V8.05c0-4.23 3.19-8 7.1-8h5.1v6.26h-5.1c-.56 0-1.21.67-1.21 1.69v2.51h6.31v6.31h-6.31v14.29" fill="#BABAB9"/></g><defs><clipPath id="clip0_38_70"><path fill="#fff" d="M0 0h16.82v31.11H0z"/></clipPath></defs></svg>

<svg width="17" height="32" viewBox="0 0 17 32" fill="none" xmlns="http://www.w3.org/2000/svg">
<g clip-path="url(#clip0_38_70)">
<path d="M4.62 31.11V16.82H0V10.51H4.62V8.05C4.62 3.82 7.81 0.0500031 11.72 0.0500031H16.82V6.31H11.72C11.16 6.31 10.51 6.98 10.51 8V10.51H16.82V16.82H10.51V31.11" fill="#BABAB9"/>
</g>
<defs>
<clipPath id="clip0_38_70">
<rect width="16.82" height="31.11" fill="white"/>
</clipPath>
</defs>
</svg>
